public/img/icons/svg-search.svg

<svg width="30" height="30" viewBox="0 0 30 30" fill="none" xmlns="http://www.w3.org/2000/svg">
               <g clip-path="url(#clip0)">
               <path fill-rule="evenodd" clip-rule="evenodd" d="M18.7224 20.6921C17.1348 21.8673 22.0717 16.8189 20.6668 18.7379C20.702 18.7351 20.6368 18.8415 20.4184 19.1082C20.4184 19.1082 24.1702 22.8348 26.012 24.7314C26.6513 25.4228 25.4977 26.8028 24.714 26.0823C23.0462 24.4642 19.0998 20.4428 19.0937 20.4362L18.7224 20.6921V20.6921Z" fill="white"/>
               <path d="M13.2096 22.5764C15.6236 22.5529 18.0133 21.5531 19.7317 19.8548C21.7727 17.8378 22.8236 14.8537 22.4571 12.0047C21.8289 7.12263 17.8155 3.80951 13.1496 3.80951C9.60439 3.80951 6.15908 6.02716 4.64783 9.24279C3.49096 11.7047 3.48861 14.677 4.64783 17.1431C6.1483 20.3362 9.53736 22.5422 13.0891 22.5764C13.1294 22.5764 13.1697 22.5764 13.2096 22.5764V22.5764ZM13.0989 21.0122C9.49377 20.9775 6.13002 18.1893 5.46111 14.6147C4.98955 12.0947 5.87971 9.36747 7.73408 7.57779C9.89877 5.48763 13.3014 4.78779 16.1308 5.97232C18.6621 7.03216 20.5567 9.4931 20.906 12.2043C21.205 14.5284 20.3711 16.964 18.7324 18.6417C17.2947 20.1136 15.2786 20.992 13.1997 21.0122C13.166 21.0122 13.1327 21.0122 13.0989 21.0122V21.0122Z" fill="white"/>
               </g>
               <defs>
               <clipPath id="clip0">
               <rect width="30" height="30" fill="white"/>
               </clipPath>
               </defs>
               </svg>

<svg xmlns="http://www.w3.org/2000/svg" width="30" height="30" fill="none"  xmlns:v="https://vecta.io/nano"><g clip-path="url(#A)" fill="#fff"><path fill-rule="evenodd" d="M18.722 20.692c-1.588 1.175 3.349-3.873 1.944-1.954.035-.003-.03.104-.248.37l5.594 5.623c.639.691-.514 2.071-1.298 1.351l-5.62-5.646-.371.256h0z"/><path d="M13.21 22.576a9.52 9.52 0 0 0 6.522-2.722c2.041-2.017 3.092-5.001 2.725-7.85-.628-4.882-4.642-8.195-9.308-8.195-3.545 0-6.991 2.218-8.502 5.433a9.42 9.42 0 0 0 0 7.9c1.5 3.193 4.89 5.399 8.441 5.433h.12 0zm-.111-1.564c-3.605-.035-6.969-2.823-7.638-6.398-.472-2.52.419-5.247 2.273-7.037 2.165-2.09 5.567-2.79 8.397-1.605 2.531 1.06 4.426 3.521 4.775 6.232.299 2.324-.535 4.76-2.174 6.437a7.91 7.91 0 0 1-5.533 2.371h-.101 0z"/></g><defs><clipPath id="A"><path fill="#fff" d="M0 0h30v30H0z"/></clipPath></defs></svg>
